X:1
T: To The Edges
M: 3/4
L: 1/8
R: mazurka
K:Dmaj
a3 b2 a | g2 f2 e2 | d2 B2 d2 | A3 G FE |
D2 EDEF | A4 GA | B2 A2 d2 | A3 G FE |
D2 fg a2 | a3 g fe | d2 B2 d2 | A3 G FE |
D2 EDEF | A4 GA | B2 A2 d2 | A6 ||
f3 g2 f | e2 a2 f2 | d6- | -d2 A2 F2 |
G4 d2- | -d2 B2 G2 | A4 e2- | -e2 fgfe |
d2 fg a2 | e2 a2 f2 | d6- | -d2 A2 F2 |
G4 d2- | -d2 EFGB | A2 GAFG | EFGAFE ||
D2 a4 | a6 | g2 a3 b | a6 |
g2 a2 b2 | f4 e2 | g2 f2 d2 | A3 G FE |
D2 EDEF | A4 GA | B2 A2 d2 | e2 f2 g2 |
a3 a2 a | a3 a2 a | g2 a2 b2 | a6 |
g2 a2 b2 | f4 e2 | g2 f2 d2 | A3 G FE |
D2 EDEF | A4 GA | B2 A2 d2 | e2 f2 g2 ||
